X:1
T:Weil dann der Baum
T:André Vierendeels
T:Melody by Georg Vogler (1625)(Soprano voice) 
T:Source : Catechismus---Würzburg---J.Volmari---1652. Editor : André Vierendeels (21/09/17).
T:Notes : Original clefs : C1, other voices supplied editorially Original note values have been halved Text Middle German 
T:Weil dann der Baum
T:©
T:©
C:André Vierendeels
Z:©
%%score [ 1 2 3 ]
L:1/8
Q:1/4=120
M:4/4
K:C
V:1 treble nm="Soprano" snm="S"
V:2 treble nm="Alto" snm="A"
V:3 bass nm="Bass" snm="B"
V:1
 D4 D2 D2 | A4 c4 | B2 B2 !fermata!A4 | c4 B2 A2 | G4 E4 | ^F2 ^G2 !fermata!A4 | A4 B2 c2 | d4 A4 | %8
w: Weil dann der|Baum nichts|trägt ohn Safft,|ge- ben die|Sa- cra-|ment ihm Krafft:|Sein Gna- den|wir- ckend|
 c2 c2 B4 | !fermata!A4 E4 | F4 A4 | G2 E2 F2 G2 | D4 !fermata!C4 :| %13
w: Zei- chen Gschir-|ze: Sie-|ben mit|sie- ben sa- cher|Zie- re.|
V:2
 D4 D2 D2 | F4 E4 | G2 D2 !fermata!F4 | A4 G2 C2 | E4 B,2 C2 | D2 B,2 !fermata!^C4 | D4 D2 G2 | %7
w: Weil dann der|Baum nichts|trägt iohn Safft,|ge- ben die|Sa- ra- *|ment ihm Krafft:|Sein Gna- den|
 F4 C2 E2 | G2 E2 G4 | !fermata!E4 E4 | D4 E4 | E2 C2 C2 E2 | D2 F2 !fermata!E4 :| %13
w: wir- ckend _|Zei- chen Gschir-|ze: Sie-|ben mit|sie- ben sa- cher|Zie- * re.|
V:3
 D,4 D,2 D,2 | D,4 A,4 | E,2 G,2 !fermata!D,4 | A,4 E,2 F,2 | C,4 E,4 | A,2 E,2 !fermata!A,4 | %6
w: Weil dann der|Baum nichts|trägt ohn Safft,|ge- ben die|Sa- cra-|ment ihm Krafft:|
 D,4 G,2 E,2 | D,4 A,4 | C,2 A,,2 E,4 | !fermata!A,4 C,4 | D,4 A,4 | E,2 A,2 F,2 C,2 | %12
w: Sein Gna- den|wir- ckend|Zei- chen Gschir-|ze: Sie-|ben mi|sie- ben sa- cher|
 G,2 D,2 !fermata!A,4 :| %13
w: Zie- * re.|

